X:1
T: Old Favourite, The
T: West Clare
M: 6/8
L: 1/8
R: jig
K:Gmaj
|:B3 BAB|dBA G2B|ded d2 B|ded B2A|B3 BAB|dBA G2B|
ded cBA|G3 GAA:|g2e f2d| ege d2B |ded d2 B|ded B2d|
g2e f2d|ege d2B|1dge dBA |G3 GBd:|2dge dge| dge dBA|

